Sedona/img/favicons/catalog/Hotels.svg

<svg width="32" height="32" viewBox="0 0 32 32" fill="none" xmlns="http://www.w3.org/2000/svg">
<rect width="32" height="32" fill="#81B3D3"/>
<path d="M22.0547 18.28H10.9453V30H5V2H10.9453V13.4H22.0547V2H28V30H22.0547V18.28Z" fill="white"/>
<path d="M16.5 19L17.7348 22.8004H21.7308L18.498 25.1492L19.7328 28.9496L16.5 26.6008L13.2672 28.9496L14.502 25.1492L11.2692 22.8004H15.2652L16.5 19Z" fill="white"/>
</svg>

<svg width="32" height="32" fill="none" xmlns="http://www.w3.org/2000/svg">
  <path fill="#81B3D3" d="M0 0h32v32H0z"/>
  <path d="M22 18.3H11V30H5V2h6v11.4h11V2h6v28h-6V18.3Z" fill="#fff"/>
  <path d="m16.5 19 1.2 3.8h4l-3.2 2.3 1.2 3.8-3.2-2.3-3.2 2.3 1.2-3.8-3.2-2.3h4l1.2-3.8Z" fill="#fff"/>
</svg>
